img/clients.svg

<svg width="100" height="100" viewBox="0 0 100 100" fill="none" xmlns="http://www.w3.org/2000/svg">
<path d="M44 54.9004H60C63.3 54.9004 66 52.2004 66 48.9004V46.9004C66 41.5004 62.9 36.8004 58.5 34.5004C60.7 32.7004 62 29.9004 62 26.9004C62 21.4004 57.5 16.9004 52 16.9004C46.5 16.9004 42 21.4004 42 26.9004C42 29.9004 43.4 32.7004 45.5 34.5004C41 36.8004 38 41.5004 38 46.9004V48.9004C38 52.2004 40.7 54.9004 44 54.9004ZM52 20.9004C55.3 20.9004 58 23.6004 58 26.9004C58 30.2004 55.3 32.9004 52 32.9004C48.7 32.9004 46 30.2004 46 26.9004C46 23.6004 48.7 20.9004 52 20.9004ZM42 46.9004C42 41.4004 46.5 36.9004 52 36.9004C57.5 36.9004 62 41.4004 62 46.9004V48.9004C62 50.0004 61.1 50.9004 60 50.9004H44C42.9 50.9004 42 50.0004 42 48.9004V46.9004Z" fill="white"/>
<path d="M94.3004 57.9004L94.1004 57.7004C91.0004 55.0004 86.9004 54.1004 83.2004 55.0004C85.0004 50.8004 86.0004 46.2004 86.0004 41.4004C86.0004 22.4004 70.8004 6.90039 52.0004 6.90039C33.2004 6.90039 18.0004 22.4004 18.0004 41.4004C18.0004 47.5004 19.6004 53.2004 22.3004 58.2004C22.2004 58.2004 22.1004 58.2004 22.0004 58.2004L10.0004 60.2004C8.40045 60.5004 7.00045 61.3004 6.10045 62.6004C5.20045 63.9004 4.80045 65.5004 5.10045 67.1004L8.50045 87.8004C9.00045 91.1004 12.1004 93.3004 15.4004 92.7004L30.4004 90.2004C30.7004 90.2004 30.9004 90.2004 31.2004 90.2004L42.3004 92.8004C42.7004 92.9004 43.2004 93.0004 43.7004 93.0004C44.0004 93.0004 44.3004 93.0004 44.7004 92.9004L67.5004 89.1004C68.9004 88.9004 70.1004 88.2004 71.0004 87.1004L94.5004 60.5004C95.2004 59.9004 95.1004 58.6004 94.3004 57.9004ZM22.0004 41.4004C22.0004 24.6004 35.5004 10.9004 52.0004 10.9004C68.5004 10.9004 82.0004 24.6004 82.0004 41.4004C82.0004 49.3004 79.0004 56.5004 74.2004 61.9004L73.2004 63.0004C71.9004 64.3004 70.5004 65.5004 69.1004 66.5004C66.7004 62.3004 61.8004 59.8004 56.8004 60.7004L41.1004 63.3004C40.7004 63.4004 40.4004 63.3004 40.0004 63.2004L30.5004 59.3004C29.4004 58.8004 28.2004 58.5004 27.0004 58.3004C23.8004 53.4004 22.0004 47.6004 22.0004 41.4004ZM67.9004 84.7004C67.6004 85.1004 67.2004 85.3004 66.7004 85.4004L44.0004 89.1004C43.7004 89.1004 43.5004 89.1004 43.2004 89.1004L32.1004 86.5004C31.6004 86.4004 31.2004 86.3004 30.7004 86.3004C30.4004 86.3004 30.1004 86.3004 29.7004 86.4004L14.7004 88.9004C13.6004 89.1004 12.6004 88.3004 12.4004 87.2004L9.00045 66.5004C8.90045 66.0004 9.00045 65.4004 9.40045 65.0004C9.70045 64.6004 10.2004 64.3004 10.7004 64.2004L22.7004 62.2004C24.8004 61.9004 27.0004 62.1004 29.0004 62.9004L38.5004 66.8004C39.5004 67.2004 40.7004 67.3004 41.7004 67.2004L57.4004 64.6004C61.1004 64.0004 64.6004 66.0004 66.0004 69.3004L51.4004 71.7004C50.3004 71.9004 49.6004 72.9004 49.8004 74.0004C50.0004 75.1004 51.0004 75.8004 52.1004 75.7004L68.9004 72.9004C69.1004 72.9004 69.3004 72.8004 69.5004 72.7004C69.7004 72.6004 69.9004 72.4004 70.1004 72.2004L80.4004 61.2004C83.0004 58.4004 87.0004 57.9004 90.1004 59.7004L67.9004 84.7004Z" fill="white"/>
</svg>

<svg xmlns="http://www.w3.org/2000/svg" xmlns:xlink="http://www.w3.org/1999/xlink" version="1.1" x="0px" y="0px" viewBox="0 0 100 100" style="enable-background:new 0 0 100 100;max-width:100%" xml:space="preserve" height="100%"><g style="" fill="currentColor"><path d="M44,54.9h16c3.3,0,6-2.7,6-6v-2c0-5.4-3.1-10.1-7.5-12.4c2.2-1.8,3.5-4.6,3.5-7.6c0-5.5-4.5-10-10-10s-10,4.5-10,10   c0,3,1.4,5.8,3.5,7.6c-4.5,2.3-7.5,7-7.5,12.4v2C38,52.2,40.7,54.9,44,54.9z M52,20.9c3.3,0,6,2.7,6,6s-2.7,6-6,6s-6-2.7-6-6   S48.7,20.9,52,20.9z M42,46.9c0-5.5,4.5-10,10-10s10,4.5,10,10v2c0,1.1-0.9,2-2,2H44c-1.1,0-2-0.9-2-2V46.9z" style="" fill="currentColor"></path><path d="M94.3,57.9l-0.2-0.2C91,55,86.9,54.1,83.2,55C85,50.8,86,46.2,86,41.4c0-19-15.2-34.5-34-34.5S18,22.4,18,41.4   c0,6.1,1.6,11.8,4.3,16.8c-0.1,0-0.2,0-0.3,0l-12,2c-1.6,0.3-3,1.1-3.9,2.4c-0.9,1.3-1.3,2.9-1,4.5l3.4,20.7   c0.5,3.3,3.6,5.5,6.9,4.9l15-2.5c0.3,0,0.5,0,0.8,0l11.1,2.6c0.4,0.1,0.9,0.2,1.4,0.2c0.3,0,0.6,0,1-0.1l22.8-3.8   c1.4-0.2,2.6-0.9,3.5-2l23.5-26.6C95.2,59.9,95.1,58.6,94.3,57.9z M22,41.4c0-16.8,13.5-30.5,30-30.5s30,13.7,30,30.5   c0,7.9-3,15.1-7.8,20.5l-1,1.1c-1.3,1.3-2.7,2.5-4.1,3.5c-2.4-4.2-7.3-6.7-12.3-5.8l-15.7,2.6c-0.4,0.1-0.7,0-1.1-0.1l-9.5-3.9   c-1.1-0.5-2.3-0.8-3.5-1C23.8,53.4,22,47.6,22,41.4z M67.9,84.7c-0.3,0.4-0.7,0.6-1.2,0.7L44,89.1c-0.3,0-0.5,0-0.8,0l-11.1-2.6   c-0.5-0.1-0.9-0.2-1.4-0.2c-0.3,0-0.6,0-1,0.1l-15,2.5c-1.1,0.2-2.1-0.6-2.3-1.7L9,66.5c-0.1-0.5,0-1.1,0.4-1.5   c0.3-0.4,0.8-0.7,1.3-0.8l12-2c2.1-0.3,4.3-0.1,6.3,0.7l9.5,3.9c1,0.4,2.2,0.5,3.2,0.4l15.7-2.6c3.7-0.6,7.2,1.4,8.6,4.7l-14.6,2.4   c-1.1,0.2-1.8,1.2-1.6,2.3c0.2,1.1,1.2,1.8,2.3,1.7l16.8-2.8c0.2,0,0.4-0.1,0.6-0.2v0c0.2-0.1,0.4-0.3,0.6-0.5l10.3-11   c2.6-2.8,6.6-3.3,9.7-1.5L67.9,84.7z" style="" fill="currentColor"></path></g></svg>
